assets/Nail polish/Medium/Flat/nail_polish_flat_medium.svg

<svg width="32" height="32" viewBox="0 0 32 32" fill="none" xmlns="http://www.w3.org/2000/svg">
<path d="M2 21.2133V30L18.6691 30L24.6985 23.9706C25.8701 22.799 25.8701 20.8995 24.6985 19.728C23.5291 18.5585 21.6344 18.5564 20.4623 19.7215L21.8701 18.3138C23.0416 17.1422 23.0416 15.2427 21.8701 14.0711C20.6985 12.8996 18.799 12.8996 17.6274 14.0711L16.2132 15.4853C17.3848 14.3138 17.3848 12.4143 16.2132 11.2427C15.0416 10.0711 13.1421 10.0711 11.9706 11.2427L2 21.2133Z" fill="#C68D7B"/>
<path d="M2 30L2.5 30V29.9057L17.981 14.4247C18.9573 13.4484 20.5402 13.4484 21.5165 14.4247C21.5689 14.4771 21.55 14.4267 21.5192 14.3445C21.4729 14.2214 21.3999 14.0269 21.5 14V13.5C20.1249 12.3423 18.5685 12.423 17.2739 13.7176L2 28.9914V30Z" fill="#A9715F"/>
<path d="M9.68378 30H10.8909L20.8094 20.0815C21.7857 19.1052 23.3686 19.1052 24.3449 20.0815C24.5402 20.2768 24.8568 20.2768 25.052 20.0815C25.2473 19.8862 25.2473 19.5697 25.052 19.3744C23.6852 18.0076 21.4691 18.0076 20.1023 19.3744L9.83022 29.6465C9.73259 29.7441 9.68378 29.8721 9.68378 30Z" fill="#A9715F"/>
<path d="M27.0894 5.00815C27.3611 5.05755 27.5413 5.31784 27.4919 5.58953L26.8247 9.25918C27.1041 9.43767 27.3179 9.69687 27.4261 10.0001H24.4206C24.6212 9.4383 25.184 9.02756 25.8552 9.00139L26.5081 5.41064C26.5575 5.13896 26.8177 4.95875 27.0894 5.00815Z" fill="#533566"/>
<path d="M24.9453 2.43798C24.9765 2.18777 25.1892 2 25.4414 2H29.4336C29.7344 2 29.9671 2.26359 29.9297 2.56202L29.6095 5.12403C29.5469 5.62446 29.1215 6 28.6172 6H25.0664C24.7656 6 24.5329 5.73641 24.5703 5.43798L24.9453 2.43798Z" fill="#9F70B8"/>
<path d="M24.4206 10C24.3696 10.1428 24.3421 10.2953 24.3421 10.4537C24.3421 10.4691 24.3423 10.4845 24.3428 10.4998L24.3428 11.9074C24.3428 12.1593 24.2004 12.4111 24.0636 12.595C23.957 12.7382 23.999 12.9525 24.1756 12.9788C25.3712 13.1573 27.5047 12.1979 27.5047 10.4537C27.5047 10.253 27.4604 10.0618 27.3804 9.88785C27.3973 9.92449 27.4125 9.9619 27.4261 10H24.4206Z" fill="#9F70B8"/>
<path d="M11.9706 11.2427C11.1895 12.0237 11.1895 13.2901 11.9706 14.0711C12.7516 14.8521 14.0179 14.8521 14.799 14.0711L16.9203 11.9498C18.0919 10.7782 18.0919 8.87871 16.9203 7.70714C16.5298 7.31661 15.8966 7.31661 15.5061 7.70714L11.9706 11.2427Z" fill="#9F70B8"/>
<path d="M16.2132 18.3137C15.4321 17.5327 15.4321 16.2664 16.2132 15.4853L19.7487 11.9498C20.1393 11.5593 20.7724 11.5593 21.1629 11.9498C22.3345 13.1214 22.3345 15.0209 21.1629 16.1924L19.0416 18.3137C18.2606 19.0948 16.9942 19.0948 16.2132 18.3137Z" fill="#9F70B8"/>
<path d="M20.4558 19.728C19.6748 20.509 19.6748 21.7753 20.4558 22.5564C21.2369 23.3374 22.5032 23.3374 23.2843 22.5564L25.4056 20.4351C26.5772 19.2635 26.5772 17.364 25.4056 16.1924C25.0151 15.8019 24.3819 15.8019 23.9914 16.1924L20.4558 19.728Z" fill="#9F70B8"/>
<path d="M26.5909 2.63616C26.7919 2.68639 26.914 2.88999 26.8638 3.09092L26.3638 5.09092C26.3136 5.29184 26.11 5.414 25.909 5.36377C25.7081 5.31354 25.586 5.10994 25.6362 4.90902L26.1362 2.90902C26.1864 2.70809 26.39 2.58593 26.5909 2.63616Z" fill="#F3EEF8"/>
</svg>

<svg xmlns="http://www.w3.org/2000/svg" width="32" height="32" fill="none"><path fill="#C68D7B" d="M2 21.213V30h16.67l6.028-6.03a3 3 0 0 0-4.236-4.248l1.408-1.408a3 3 0 0 0-4.243-4.243l-1.414 1.414a3 3 0 1 0-4.242-4.242L2 21.213Z"/><path fill="#A9715F" d="M2 30h.5v-.094l15.481-15.481a2.5 2.5 0 0 1 3.535 0c.053.052.034.002.003-.08-.046-.124-.12-.318-.019-.345v-.5c-1.375-1.158-2.931-1.077-4.226.218L2 28.99V30ZM9.684 30h1.207l9.918-9.919a2.5 2.5 0 0 1 3.536 0 .5.5 0 1 0 .707-.707 3.5 3.5 0 0 0-4.95 0L9.83 29.647a.498.498 0 0 0-.146.353Z"/><path fill="#533566" d="M27.09 5.008a.5.5 0 0 1 .402.582l-.667 3.67c.28.178.493.437.601.74h-3.005c.2-.562.763-.972 1.434-.999l.653-3.59a.5.5 0 0 1 .581-.403Z"/><path fill="#9F70B8" d="M24.945 2.438A.5.5 0 0 1 25.441 2h3.993a.5.5 0 0 1 .496.562l-.32 2.562a1 1 0 0 1-.993.876h-3.55a.5.5 0 0 1-.497-.562l.375-3ZM24.42 10a1.345 1.345 0 0 0-.077.5v1.407c0 .252-.143.504-.28.688-.106.143-.064.357.113.384 1.195.178 3.329-.781 3.329-2.525a1.35 1.35 0 0 0-.079-.454h-3.005ZM11.97 11.243A2 2 0 1 0 14.8 14.07l2.121-2.121a3 3 0 0 0 0-4.243 1 1 0 0 0-1.414 0l-3.535 3.536ZM16.213 18.314a2 2 0 0 1 0-2.829l3.536-3.535a1 1 0 0 1 1.414 0 3 3 0 0 1 0 4.242l-2.121 2.122a2 2 0 0 1-2.829 0ZM20.456 19.728a2 2 0 0 0 2.828 2.828l2.122-2.12a3 3 0 0 0 0-4.244 1 1 0 0 0-1.415 0l-3.535 3.536Z"/><path fill="#F3EEF8" d="M26.59 2.636c.202.05.324.254.274.455l-.5 2a.375.375 0 1 1-.728-.182l.5-2c.05-.2.254-.323.455-.273Z"/></svg>
